X: 255
%
T: It's Nae Ay for Want o' Health O?
C:
O:Scotland
B:Keith Norman MacDonald : "The Skye collection of the best reels & strathspeys extant" : 1887
Z:Ralph Palmer
R:Reel
M:C|
L:1/8
K:A
B | {fg}a>A A/2A/2A {/c}B>AGB | A/2A/2A f>e dBBg | (a>A) A/2A/2A B>AGB | A/2A/2A (f>e) {/c}d2 d :|
e | fdfa fdfa | edef dBBg | fdfa fdfa | edef d/2d/2d (de) |
fdfa fdfa | edef dBBg | {fg}a>A A/2A/2A (BAGB) | A/2A/2A f>e d2 d|]


